!!!OTL: Are You from Dixie?
!!!COM: Cobb, George
!!!LAR: Hill, John
!! "Are You From Dixie?" by George Cobb, arranged by John Hill;
!! from "Close Harmony Classics for Barbershop Quartets" B. Feldman & Co.;
!! copyright 1915 & 1952 by M. Witmark & Sons; pp. 2-3; alla breve; in C major
!! NOTE:  The "tag ending" is encoded here without repeats.
**kern	**kern	**kern	**kern
*Ivox	*Ivox	*Ivox	*Ivox
*M2/2	*M2/2	*M2/2	*M2/2
*C:	*C:	*C:	*C:
=1	=1	=1	=1
1C	1c	1G	1e
=2	=2	=2	=2
2.B	2.d	2.e	2.g#
4E	4B	4d	4g
=3	=3	=3	=3
2F	2A	2c	2f
2F#	2B	2A	2d#
=4	=4	=4	=4
2G	2c	2G	2e
4C	4c	4G	4e
4C	4c	4G	4e
=5	=5	=5	=5
4D	4c	4A	4f#
4D	4c	4A	4f#
4D	4c	4A	4f#
4D	4c	4A	4f#
=6	=6	=6	=6
4A	4c	4d	4f#
4A	4c	4d	4f#
4A	4c	4d	4f#
4A	4c	4d	4f#
=7	=7	=7	=7
2G	2B	2d	2fn
2A	2c	2d	2f#
=8	=8	=8	=8
2.D	2.B	2.fn	2.g
4r	4r	4r	4r
=9	=9	=9	=9
4C	4c	4A	4e
4C	4c	4A	4e
4C	4G	4E	4c
[4C	[4c	[4G	[4e
=10	=10	=10	=10
4C]	4c]	4G]	4e]
2C	2c	2A	2e
4C	4G	4E	4c
=11	=11	=11	=11
4C	4c	4G	4e
2C	2c	2A	2e
[4C	[4G	[4c	[4e
=12	=12	=12	=12
4C]	4G]	4c]	4e]
4D	4G	4B	4f
4D	4B	4A	4f
4D	4B	4A-	4f
=13	=13	=13	=13
4C	4c	4G	4e
4C	4c	4An	4e
4C	4G	4E	4c
[4C	[4c	[4G	[4e
=14	=14	=14	=14
4C]	4c]	4G]	4e]
2C	2c	2A	2e
4C	4G	4E	4c
=15	=15	=15	=15
4C	4c	4G	4e
2C	2c	2A	2e
[4E	[4G	[4c	[4g
=16	=16	=16	=16
4E]	4G]	4c]	4g]
2.E-	2.A-	2.c	2.f#
=17	=17	=17	=17
4D	4An	4c	4fn
4D	4G	4B	4f
4C#	4F#	4A#	4e
[4D	[4G	[4B	[4f
=18	=18	=18	=18
1D]	1G]	1B]	1F]
=19	=19	=19	=19
4D	4G	4B	4f
4D	4B	4A	4f
4D	4B	4G#	4f
[4D	[4B	[4A	[4f
=20	=20	=20	=20
1D]	1B]	1A]	1f]
=21	=21	=21	=21
4D	4c	4A	4f#
4A	4c	4d	4f#
4D	4c	4A	4f#
[4A	[4c	[4d	[4f#
=22	=22	=22	=22
4A]	4c]	4d]	4f#]
4D	4A	4c	4f#
4D	4d	4B	4f#
4D	4c	4A	4f#
=23	=23	=23	=23
2G	2d	2B	2fn
4A	4d	4c	4f#
[4B	[4fn	[4d	[4g
=24	=24	=24	=24
1B]	1F]	1d]	1g]
=25	=25	=25	=25
4C	4c	4G	4e
4C	4c	4A	4e
4C	4G	4E	4c
[4C	[4c	[4G	[4e
=26	=26	=26	=26
4C]	4c]	4G]	4e]
2C	2c	2A	2e
4C	4G	4E	4c
=27	=27	=27	=27
4C	4c	4G	4e
2C	2c	2A	2e
[4C	[4G	[4c	[4e
=28	=28	=28	=28
4C]	4G]	4c]	4e]
4D	4G	4B	4f
4D	4B	4A	4f
4D	4B	4A-	4f
=29	=29	=29	=29
4C	4c	4G	4e
4C	4c	4An	4e
4C	4G	4E	4c
[4C	[4c	[4G	[4e
=30	=30	=30	=30
4C]	4c]	4G]	4e]
2C	2c	2A	2e
4C	4G	4E	4c
=31	=31	=31	=31
4C	4c	4G	4e
2C	2c	2A	2e
[4E	[4G	[4c	[4g
=32	=32	=32	=32
4E]	4G]	4c]	4g]
2.D	2.A	2.c	2.f#
=33	=33	=33	=33
4r	4r	4r	4r
4C#	4c#	4A#	4f#
4D	4d	4B	4g
4F#	4c	4A#	4f#
=34	=34	=34	=34
4G	4d	4B	4g
2.D	2.B	2.d	2.g
=35	=35	=35	=35
4r	4r	4r	4r
4C#	4c#	4A#	4f#
4D	4d	4B	4g
4F#	4c#	4A#	4f#
=36	=36	=36	=36
4G	4d	4B	4g
2.G#	2.B	2.d	2.fn
=37	=37	=37	=37
2A	2cn	2d	2f#
2D	2A	2c	2f#
=38	=38	=38	=38
4D	4d	4B	4f#
2D	2c	2A	2f#
[4D	[4B	[4G	[4fn
=39	=39	=39	=39
1D]	1B]	1G]	1f]
=40	=40	=40	=40
4r	4r	4r	4r
4D	4B	4G	4f
4D	4B	4A	4f
4D	4B	4G	4f
=41	=41	=41	=41
4C	4G	4E	4c
[2.C	[2.c	[2.G	[2.e
=42	=42	=42	=42
4C]	4c]	4G]	4e]
4G	4B-	4c	4e
4G	4B-	4d	4e
4G	4B-	4c	4e
=43	=43	=43	=43
4F	4c	4A	4f
2.F	2.A	2.c	2.f
=44	=44	=44	=44
2.A	2.c	2.d	2.f#
4A-	4c	4d#	4f#
=45	=45	=45	=45
2G	2c	2e	2g
2G	2c	2e	2g
=46	=46	=46	=46
2A-	2c	2e-	2g-
2A-	2c	2e-	2g-
=47	=47	=47	=47
4G	4c	4en	4gn
4G	4B	4d	4f
4F	4A	4c	4e-
[4C	[4c	[4G	[4en
=48	=48	=48	=48
4C]	4c]	4G]	4e]
4D	4B	4G	4f
4D	4B	4A	4f
4D	4B	4G	4f
=49	=49	=49	=49
4C	4G	4E	4c
[2.C	[2.c	[2.G	[2.e
=50	=50	=50	=50
4C]	4c]	4G]	4e]
4G	4B-	4c	4e
4G	4B-	4d	4e
4G	4B-	4c	4e
=51	=51	=51	=51
4F	4c	4A	4f
[2.F	[2.A	[2.c	[2.f
=52	=52	=52	=52
4F]	4A]	4c]	4f]
2E	2G#	2B	2e
4F	4A	4c	4f
=53	=53	=53	=53
2A	2c	2d	2f#
2A	2c	2d	2f#
=54	=54	=54	=54
4A	4c	4d	4f#
4D	4A	4c	4f#
4D	4c	4A	4f#
[4G	[4B	[4d	[4fn
=55	=55	=55	=55
1G]	1B]	1d]	1f]
=56	=56	=56	=56
4r	4r	4r	4r
4G-	4B-	4c#	4e
4Gn	4Bn	4d	4f#
4G	4B	4d#	4f#
=57	=57	=57	=57
4C	4B-	4e	4g
4G	4B-	4c	4e
4G	4B-	4d	4e
4G	4B-	4c	4e
=58	=58	=58	=58
4C	4B-	4e	4g
4G	4B-	4c	4e
4G	4B-	4d	4e
4G	4B-	4c	4e
=59	=59	=59	=59
2.C	4r	4r	4r
.	2B-	2e	2g
4C	4G	4c	4e
=60	=60	=60	=60
4G	1B-	1d	1e
4C	.	.	.
4D	.	.	.
4E	.	.	.
=61	=61	=61	=61
4F	4c	4d	4a
4F	4c	4e	4a
4F	4c	4d	4a
4F	4A	4c	4f
=62	=62	=62	=62
4F	4c	4d	4a
4F	4c	4e	4a
4F	4c	4d	4a
4F	4A	4c	4f
=63	=63	=63	=63
2A-	2c	2e-	2g-
4A-	4c	4e-	4g-
[4G	[4B	[4d	[4f
=64	=64	=64	=64
4G]	4B]	4d]	4f]
4D	4B	4G	4f
4D	4B	4A	4f
4D	4B	4G	4f
=65	=65	=65	=65
4C	4G	4E	4c
[2.C	[2.c	[2.G	[2.e
=66	=66	=66	=66
4C]	4c]	4G]	4e]
4G	4B-	4c	4e
4G	4B-	4d	4e
4G	4B-	4c	4e
=67	=67	=67	=67
4F	4c	4A	4f
2F	2A	2c	2f
[4A	[4c	[4d	[4f#
=68	=68	=68	=68
2.A]	2.c]	2.d]	2.f#]
4A-	4c	4d#	4f#
=69	=69	=69	=69
2G	2c	2e	2g
2An	2c#	2e	2g
=70	=70	=70	=70
4D	4A	4c	4f#
2.G	2.B	2.d	2.fn
=71	=71	=71	=71
2C	2c	2G	2e
2BB	2d	2G#	2e
=72	=72	=72	=72
4E	4c#	4B	4gn
2.E	2.c#	2.A	2.g
=73	=73	=73	=73
2A	2cn	2d	2f#
2F#	2B	2d#	2a
=74	=74	=74	=74
2Dn	2B	2fn	2g
2G	2d	2f	2b
=75	=75	=75	=75
1c	[1e	1g	[1cc
=76	=76	=76	=76
1C	1e]	1G	1cc]
==	==	==	==
*-	*-	*-	*-
